images/Twitter.svg

<svg height="72" viewBox="0 0 89 72" width="89" xmlns="http://www.w3.org/2000/svg"><path d="m289.889 127.881c33.18 0 51.325-27.489 51.325-51.325 0-.781-.016-1.558-.052-2.331 3.522-2.547 6.584-5.724 8.999-9.341-3.232 1.436-6.711 2.404-10.36 2.84 3.725-2.233 6.585-5.767 7.933-9.979-3.486 2.067-7.345 3.569-11.454 4.379-3.292-3.506-7.98-5.699-13.167-5.699-9.964 0-18.042 8.078-18.042 18.037 0 1.416.159 2.792.467 4.113-14.991-.754-28.285-7.933-37.182-18.847-1.55 2.665-2.443 5.763-2.443 9.067 0 6.258 3.185 11.783 8.028 15.016-2.959-.092-5.739-.905-8.17-2.258-.004.076-.004.152-.004.231 0 8.737 6.219 16.031 14.472 17.684-1.515.413-3.109.635-4.755.635-1.163 0-2.293-.115-3.392-.325 2.297 7.166 8.956 12.382 16.853 12.529-6.176 4.839-13.953 7.722-22.405 7.722-1.455 0-2.891-.083-4.303-.25 7.984 5.116 17.463 8.102 27.652 8.102" fill="#4591c2" fill-rule="evenodd" transform="translate(-262 -56)"/></svg>

<?xml version="1.0" encoding="UTF-8"?>
<svg width="89px" height="72px" viewBox="0 0 89 72" version="1.1" xmlns="http://www.w3.org/2000/svg" xmlns:xlink="http://www.w3.org/1999/xlink">
    <!-- Generator: Sketch 61 (89581) - https://sketch.com -->
    <title>Fill 1</title>
    <desc>Created with Sketch.</desc>
    <g id="Page-1" stroke="none" stroke-width="1" fill="none" fill-rule="evenodd">
        <g id="Twitter_LogoPairingLockup_Username" transform="translate(-262.000000, -56.000000)" fill="#4591C2">
            <path d="M289.889,127.881 C323.069,127.881 341.214,100.392 341.214,76.556 C341.214,75.775 341.198,74.998 341.162,74.225 C344.684,71.678 347.746,68.501 350.161,64.884 C346.929,66.32 343.45,67.288 339.801,67.724 C343.526,65.491 346.386,61.957 347.734,57.745 C344.248,59.812 340.389,61.314 336.28,62.124 C332.988,58.618 328.3,56.425 323.113,56.425 C313.149,56.425 305.071,64.503 305.071,74.462 C305.071,75.878 305.23,77.254 305.538,78.575 C290.547,77.821 277.253,70.642 268.356,59.728 C266.806,62.393 265.913,65.491 265.913,68.795 C265.913,75.053 269.098,80.578 273.941,83.811 C270.982,83.719 268.202,82.906 265.771,81.553 C265.767,81.629 265.767,81.705 265.767,81.784 C265.767,90.521 271.986,97.815 280.239,99.468 C278.724,99.881 277.13,100.103 275.484,100.103 C274.321,100.103 273.191,99.988 272.092,99.778 C274.389,106.944 281.048,112.16 288.945,112.307 C282.769,117.146 274.992,120.029 266.54,120.029 C265.085,120.029 263.649,119.946 262.237,119.779 C270.221,124.895 279.7,127.881 289.889,127.881" id="Fill-1"></path>
        </g>
    </g>
</svg>
